X:1
T:Title
%%score ( 1 2 ) { 3 | 4 }
L:1/8
Q:1/4=100
M:4/4
K:G
V:1 treble nm="Grand Piano, Soprano"
V:2 treble 
V:3 bass nm="Choir Pad, Bass"
V:4 bass 
V:1
 [B,D]2 [B,G]>[CA] [DB] [DB]2 [CA] | [EG]2 [CE]2 [B,D]3 [GB] | [Gd]2 [Gd]2 [Gd]3 [GB] | %3
w: By~Lydia~Shivers~Leech * * * * *|||
 [GB]2 [FA]2 [FA]4 | [B,D]2 [B,G]>[CA] [DB]3 [CA] | [EG]2 [CE]2 [B,D]3 [GB] | %6
w: |||
 [Gd]2 [Gd]>[Gd] [Gd] [Gd]2 [Gc] | [GB]2 [FA]2 [DG]3 [GB] | [Gd]2 [Gd]2 [Gd]3 [GB] | E2 z2 z4 | %10
w: ||||
 [DG]2 [DG]>[DA] [GB] [GB]2 [GB] | [FA]2 [G^c]2 [Fd]4 | [Gd]2 [Gd]>[Ge] [Gd] [GB]3 | %13
w: |||
 [DB]>[CA] [EG][CE] [B,D]3 [B,D] | [B,G]2 [B,G]>[DA] [DB] [Dd]2 [Ec] | [DB]2 [CA]2 [B,G]4- | %16
w: |||
 [B,G]4 z4 |] %17
w: |
V:2
 x8 | x8 | x8 | x8 | x8 | x8 | x8 | x8 | x8 | AG [CE]2 [B,D]3 [B,D] | x8 | x8 | x8 | x8 | x8 | x8 | %16
 x8 |] %17
V:3
 G,2 G,>G, G, G,2 G, | G,2 G,2 G,3 D | B,2 B,2 B,3[K:treble] D | D2 D2 D2 C2 | B,2 G,>G, G,3 G, | %5
 G,2 G,2 G,3 D | B,2 B,>B, B, B,2[K:treble] E | D2 C2 B,3 D | B,2 B,2 B,3 D | C2 G,2 G,3 G, | %10
 B,2 B,>[K:treble]C D D2 D | D2 E2 D4 | B,2 B,>C B, D3 | G,>G, G,G, G,3 G, | G,2 G,>F, G, B,2 G, | %15
 G,2 F,2 G,4- | G,4 z4 |] %17
V:4
 G,,2 G,,>G,, G,, G,,2 G,, | C,2 E,2 z2 z G, | G,2 G,2 G,3 G, | D,2 D,2 D,4 | %4
 G,2 G,,>G,, G,,3 G,, | C,2 E,2 z2 z G, | G,2 G,>G, G, G,2 C, | D,2 D,2 G,3 G, | G,2 G,2 G,3 G, | %9
 C,2 E,2 z4 | G,2 G,>G, G, G,2 G, | A,2 A,2 D,4 | G,2 G,>G, G, G,3 | G,,>G,, C,E, z4 | %14
 G,,2 G,,>D, z G,2 C, | D,2 D,2 G,,4- | G,,4 z4 |] %17

